X: 421
T: the Apprentice Boy   #2
N: Irish title: an daorogla.c
R: jig, air
%S: s:2 b:10(6+4)
B: O'Neill's 1850 #421
O: J.O'Neill
Z: henrik.norbeck@mailbox.swipnet.se
Q: "Lively"
M: 6/8
L: 1/8
K: A
"^A"[|] (e/d/) | c2A d2B | G2A Bde | f>ed [1 c2d | e3- e2 :|[2 B2A | A3- "^fine"A2 |]
"^B"[| d | efg a2f | g2e fec | efg f2d | e3- "^->A2"e2 |]
